X: 253
M: C
L: 1/16
K: D
|:\
d3ed3d' a3f (gf).e.d | cdec d2A2 B3ee3f |\
d3ed3d' a2f2 gfed | (cd).e.c d2A2 B2d2d2A2 |
d2e2d2d'2 a2f2 gfed | cdec d2A2 (B2e2)(e2f2) |\
.d2.d'2.c'2.b2 .a2.^g2.=g2.f2 | .e2.d2.c2.B2 .A2.G2.F2.E2 |]


